X:16488
T:The Black mans Antic
M:6/4
L:1/4
S:Henry Atkinson 1694/5 transcribed John Stokoe 1883
N:'The second part is the same as in Gee woa Dobbin in Old English Song'
N:-
N:comment, presumably JS
K:B _ Major
fgab2a|g>fgfd2|e>dcfBc|c2BB3||BFEDB,2|E>F G/2F/2GC2|DEFGAB|B2AB3||
